images/Telegram.svg

<svg viewBox="0 0 25 24" fill="none" xmlns="http://www.w3.org/2000/svg">
    <path fill-rule="evenodd" clip-rule="evenodd" d="M21.997 12C21.997 17.5228 17.5198 22 11.997 22C6.47415 22 1.99699 17.5228 1.99699 12C1.99699 6.47715 6.47415 2 11.997 2C17.5198 2 21.997 6.47715 21.997 12ZM12.3553 9.38244C11.3827 9.787 9.43876 10.6243 6.52356 11.8944C6.05018 12.0827 5.8022 12.2669 5.77962 12.4469C5.74147 12.7513 6.12258 12.8711 6.64155 13.0343C6.71214 13.0565 6.78528 13.0795 6.86026 13.1038C7.37085 13.2698 8.05767 13.464 8.41472 13.4717C8.7386 13.4787 9.10009 13.3452 9.49918 13.0711C12.2229 11.2325 13.629 10.3032 13.7172 10.2831C13.7795 10.269 13.8658 10.2512 13.9243 10.3032C13.9828 10.3552 13.977 10.4536 13.9708 10.48C13.9331 10.641 12.4371 12.0318 11.6629 12.7515C11.4216 12.9759 11.2504 13.135 11.2154 13.1714C11.137 13.2528 11.0571 13.3298 10.9803 13.4038C10.506 13.8611 10.1502 14.204 11 14.764C11.4083 15.0331 11.7351 15.2556 12.0611 15.4776C12.4171 15.7201 12.7722 15.9619 13.2317 16.2631C13.3487 16.3398 13.4605 16.4195 13.5694 16.4971C13.9837 16.7925 14.3559 17.0579 14.8158 17.0155C15.083 16.991 15.359 16.7397 15.4992 15.9903C15.8305 14.2193 16.4817 10.382 16.6322 8.80081C16.6454 8.66228 16.6288 8.48498 16.6154 8.40715C16.6021 8.32932 16.5743 8.21842 16.4731 8.13633C16.3533 8.03911 16.1683 8.01861 16.0856 8.02C15.7095 8.0267 15.1324 8.22735 12.3553 9.38244Z" stroke="black" stroke-linejoin="round"/>
</svg>

<svg viewBox="0 0 25 24" fill="none" xmlns="http://www.w3.org/2000/svg"><path clip-rule="evenodd" d="M21.997 12c0 5.523-4.477 10-10 10s-10-4.477-10-10 4.477-10 10-10 10 4.477 10 10zm-9.642-2.618c-.972.405-2.916 1.242-5.831 2.512-.474.189-.722.373-.744.553-.039.304.343.424.862.587l.218.07c.51.166 1.198.36 1.555.368.324.007.685-.127 1.084-.4 2.724-1.84 4.13-2.769 4.218-2.789.063-.014.149-.032.207.02.059.052.053.15.047.177-.038.161-1.534 1.552-2.308 2.271-.241.225-.413.384-.448.42a8.802 8.802 0 0 1-.235.233c-.474.457-.83.8.02 1.36.408.27.735.492 1.061.714.356.242.711.484 1.17.785.118.077.23.156.338.234.415.296.787.56 1.247.518.267-.024.543-.275.683-1.025.332-1.77.983-5.608 1.133-7.19a1.757 1.757 0 0 0-.017-.393.421.421 0 0 0-.142-.27c-.12-.098-.305-.118-.387-.117-.376.007-.954.207-3.73 1.362z" stroke="#000" stroke-linejoin="round"/></svg>
